X: 21202
T: FRA DIAVOLO SETT (tune 2)
C:
%R: march, reel
B: Elias Howe "The Musician's Companion" 1843 p.120 #2
S: http://imslp.org/wiki/The_Musician's_Companion_(Howe,_Elias)
Z: 2015 John Chambers <jc:trillian.mit.edu>
M: 2/4
L: 1/16
K: G
% - - - - - - - - - - - - - - - - - - - - - - - - - - - - -
V: 1 name="2"
d2 |\
g3g bagf | g3g bagf | g2d2e2f2 | g2d2e2f2 |\
g3g bagf | g3g bagf | g2d2e2f2 | a4 g2 H|]
d2 |\
c2B2A2c2 | B2A2G2d2 | e2c2a2g2 | g4 f2d2 |\
c2B2A2c2 | B2A2G2d2 | e2ag fdef | a4 "^D.C."g2 |]
B2 |\
e3B g3B | e3g bgfe | ^d3B f2B2 | ^d2f2 afed |\
e3B g3B | c2A2F2c2 | B2e2 gfe^d | e4-"D.C."e2 |]
% - - - - - - - - - - Dance description - - - - - - - - - -
%%begintext align
%% First two forward and back,
%% cross over,
%% chassa de chassa,
%% cross back,
%% ladies chain,
%% promenade four,
%% next two forward, &c.
%%endtext
% - - - - - - - - - - - - - - - - - - - - - - - - - - - - -
%%sep 1 1 300

%%sep 1 1 500

